src/assets/icons/sass.svg

<svg width="51" height="50" viewBox="0 0 51 50" fill="none" xmlns="http://www.w3.org/2000/svg">
<g clip-path="url(#clip0_1479_21452)">
<path d="M42.5918 0H7.5918C3.44966 0 0.0917969 3.35786 0.0917969 7.5V42.5C0.0917969 46.6421 3.44966 50 7.5918 50H42.5918C46.7339 50 50.0918 46.6421 50.0918 42.5V7.5C50.0918 3.35786 46.7339 0 42.5918 0Z" fill="#CC6699"/>
<path d="M25.2871 8.59369C15.9121 11.8163 9.85742 18.3593 10.4434 22.2656C11.0293 26.1718 16.8887 29.2968 19.5254 31.3476C16.1074 33.1054 11.8105 35.7421 11.9082 39.1601C12.1035 43.8476 17.1816 42.3827 19.3301 41.0156C21.4785 39.6484 23.627 35.8398 22.2598 31.8359C25.2871 31.0546 27.9238 32.0312 28.7051 32.6171C31.7324 34.7656 30.1699 37.207 29.0957 37.5976C28.0215 37.9882 28.7051 38.1835 29.3887 37.9882C30.0723 37.7929 31.5371 36.8163 31.5371 35.1562C31.5371 30.957 27.0449 29.0038 21.4785 30.4687C18.2559 27.0507 13.8613 25.4882 14.0566 21.7773C14.1543 20.4101 14.6426 16.8945 23.334 12.4999C32.0254 8.1054 38.1777 9.86322 37.3965 13.8671C36.2246 19.9218 25.6777 24.0234 21.9668 20.5077C21.7715 20.1171 21.0879 19.8242 21.4785 20.8984C23.4316 25.7812 39.252 23.5351 39.9355 13.1835C40.1309 7.71478 32.2207 6.24994 25.2871 8.59369ZM16.8887 39.8437C14.4473 40.6249 14.5449 39.0624 14.6426 38.4765C14.9355 36.8163 16.3027 34.7656 20.4043 32.7148C21.5762 36.4257 18.9395 39.2577 16.8887 39.8437Z" fill="white"/>
</g>
<defs>
<clipPath id="clip0_1479_21452">
<rect width="50" height="50" fill="white" transform="translate(0.0917969)"/>
</clipPath>
</defs>
</svg>

<svg xmlns="http://www.w3.org/2000/svg" width="51" height="50" fill="none"><g clip-path="url(#a)"><path fill="#C69" d="M42.592 0h-35a7.5 7.5 0 0 0-7.5 7.5v35a7.5 7.5 0 0 0 7.5 7.5h35a7.5 7.5 0 0 0 7.5-7.5v-35a7.5 7.5 0 0 0-7.5-7.5Z"/><path fill="#fff" d="M25.287 8.594c-9.375 3.222-15.43 9.765-14.844 13.672.586 3.906 6.446 7.03 9.082 9.082-3.418 1.757-7.714 4.394-7.617 7.812.196 4.688 5.274 3.223 7.422 1.856 2.149-1.368 4.297-5.176 2.93-9.18 3.027-.781 5.664.195 6.445.781 3.027 2.149 1.465 4.59.39 4.98-1.073.391-.39.587.294.391.683-.195 2.148-1.172 2.148-2.832 0-4.199-4.492-6.152-10.058-4.687-3.223-3.418-7.618-4.98-7.422-8.692.097-1.367.586-4.883 9.277-9.277 8.691-4.395 14.844-2.637 14.063 1.367-1.172 6.055-11.72 10.156-15.43 6.64-.195-.39-.88-.683-.488.391 1.953 4.883 17.773 2.637 18.456-7.714.196-5.47-7.714-6.934-14.648-4.59Zm-8.398 31.25c-2.442.78-2.344-.782-2.246-1.367.292-1.66 1.66-3.711 5.761-5.762 1.172 3.71-1.465 6.543-3.515 7.129Z"/></g><defs><clipPath id="a"><path fill="#fff" d="M.092 0h50v50h-50z"/></clipPath></defs></svg>
